X: 22189
T: La Belle-Mère Enragée
R: reel
M: 4/4
K: Gmajor
|D|:"Em"E2 BE dEBE|"Am"cBcd cBAG|"D"FGAF DFAF|"G"GABG "D"FGAF|
"Em"E2 BE dEBE|"Am"cBcd "F"cBAG|"D"FGAF DFAF|1 d2 F2 "G"G3 F:|2 d2 F2 "G"G2 (3DEF||
|:"G"G2 BG "D"FGAF|"G"GABc dBGE|"F"=F2 cF dFcF|D=FcF "D"dDE^F|
"G"G2 BG "D"FGAF|"G"GABc dedB|"D"cdcA "G"BcBG|"D"A2 F2 "G"G2 (3DEF:|

